X:1
T:[ID 1-109a]
T:[ID 1-109a]
T:Bezeichnung standardisiert: Tanz mit mir; Tantz mit mir In dieser Quelle auch als: Tantz
T:Urheber unbekannt Erstbeleg: 1767 (Datum in der schriftlichen Quelle) Datum in der hier transkribierten schriftlichen Quelle: 1796
C:Urheber unbekannt
C:Erstbeleg: 1767 (Datum in der schriftlichen Quelle)
C:Datum in der hier transkribierten schriftlichen Quelle: 1796
L:1/8
M:2/4
K:D
V:1 treble 
V:1
 df d2 | eg e2 | cABc | d/c/d/e/ d2 | df d2 | eg e2 | cABc | d2 d2 :: faaf | gb/g/ e2 | egge | %11
 fa/f/ d2 | df d2 | eg e2 | cABc | d2 d2 :| %16

